app/assets/images/welcome/creneau.svg

<?xml version="1.0" encoding="UTF-8"?>
<svg width="80px" height="80px" viewBox="0 0 80 80" version="1.1" xmlns="http://www.w3.org/2000/svg" xmlns:xlink="http://www.w3.org/1999/xlink">
    <!-- Generator: Sketch 59.1 (86144) - https://sketch.com -->
    <title>illu</title>
    <desc>Created with Sketch.</desc>
    <defs>
        <polygon id="path-1" points="0 80 80 80 80 0 0 0"></polygon>
    </defs>
    <g id="Homepage-particuliers" stroke="none" stroke-width="1" fill="none" fill-rule="evenodd">
        <g id="1A-D-HPparticuliers" transform="translate(-808.000000, -431.000000)">
            <g id="How-it-works-" transform="translate(15.000000, 377.000000)">
                <g id="4" transform="translate(727.000000, 54.000000)">
                    <g id="illu" transform="translate(66.000000, 0.000000)">
                        <path d="M80,40 C80,62.092 62.092,80 40,80 C17.908,80 0,62.092 0,40 C0,17.908 17.908,0 40,0 C62.092,0 80,17.908 80,40" id="Fill-1" fill="#CEF3EF"></path>
                        <path d="M14.4746,55.2148 L29.7446,55.2148 L29.7446,33.2908 L14.4746,55.2148 Z M54.2126,55.2148 L54.2126,67.0588 L44.7186,67.0588 L44.7186,79.7818 L29.7446,79.7818 L29.7446,67.0588 L0.4786,67.0588 L0.4786,55.7048 L32.4846,10.0938 L44.7186,10.0938 L44.7186,55.2148 L54.2126,55.2148 Z" id="Fill-3" fill="#222E5C"></path>
                        <polygon id="Fill-5" fill="#FFFFFF" points="78.3818 49.208 78.6948 49.208 78.7588 49.208 78.7588 79.738 42.9498 79.738 29.7588 66.483 29.7588 49.208 30.0718 49.208"></polygon>
                        <polygon id="Fill-7" fill="#66D9CE" points="78.7588 40.6016 78.7588 49.2076 78.6958 49.2076 78.3818 49.2076 30.0718 49.2076 29.7588 49.2076 29.7588 40.6016"></polygon>
                        <mask id="mask-2" fill="white">
                            <use xlink:href="#path-1"></use>
                        </mask>
                        <g id="Clip-10"></g>
                        <polygon id="Fill-9" fill="#46B7A9" mask="url(#mask-2)" points="63.537 44.747 68.537 44.747 68.537 35.198 63.537 35.198"></polygon>
                        <polygon id="Fill-11" fill="#46B7A9" mask="url(#mask-2)" points="51.79 44.747 56.79 44.747 56.79 35.198 51.79 35.198"></polygon>
                        <polygon id="Fill-12" fill="#46B7A9" mask="url(#mask-2)" points="40.5 44.747 45.5 44.747 45.5 35.198 40.5 35.198"></polygon>
                        <polygon id="Fill-13" fill="#CEF3EF" mask="url(#mask-2)" points="64.335 62.5 74.335 62.5 74.335 52.5 64.335 52.5"></polygon>
                        <polygon id="Fill-14" fill="#CEF3EF" mask="url(#mask-2)" points="49.259 62.5 59.259 62.5 59.259 52.5 49.259 52.5"></polygon>
                        <polygon id="Fill-15" fill="#CEF3EF" mask="url(#mask-2)" points="34.182 62.5 44.182 62.5 44.182 52.5 34.182 52.5"></polygon>
                        <polygon id="Fill-16" fill="#FF7D00" mask="url(#mask-2)" points="64.346 76.32 74.346 76.32 74.346 66.32 64.346 66.32"></polygon>
                        <polygon id="Fill-17" fill="#CEF3EF" mask="url(#mask-2)" points="49.269 76.32 59.269 76.32 59.269 66.32 49.269 66.32"></polygon>
                        <polygon id="Fill-18" fill="#66D9CE" mask="url(#mask-2)" points="42.9502 79.8018 42.9502 66.7348 30.0102 66.7348"></polygon>
                        <path d="M78.9541,20.9443 C76.5421,27.3393 69.4031,30.5683 63.0091,28.1563 C56.6131,25.7453 53.3851,18.6053 55.7961,12.2113 C58.2081,5.8163 65.3471,2.5873 71.7411,4.9983 C78.1371,7.4103 81.3651,14.5483 78.9541,20.9443" id="Fill-19" fill="#FF7D00" mask="url(#mask-2)"></path>
                        <path d="M72.5557,22.4375 L72.1027,23.6395 L59.1607,18.7585 L59.6147,17.5575 C59.9287,16.7255 60.5577,16.0835 61.3327,15.7075 L63.0737,14.9195 C63.8787,14.5545 64.4777,13.9015 64.7907,13.0695 L65.3497,11.5895 C66.0577,9.7105 68.1367,8.7705 70.0167,9.4785 C71.8967,10.1875 72.8367,12.2665 72.1277,14.1465 L71.5587,15.6565 C71.2447,16.4885 71.2927,17.3865 71.6267,18.1805 L72.4137,19.9205 C72.8217,20.7085 72.8587,21.6365 72.5557,22.4375" id="Fill-20" fill="#FFFFFF" mask="url(#mask-2)"></path>
                        <path d="M63.7832,20.502 L63.5512,21.118 C63.1672,22.135 63.6852,23.281 64.7022,23.664 C65.7202,24.048 66.8652,23.529 67.2482,22.513 L67.4802,21.897" id="Fill-21" fill="#FFFFFF" mask="url(#mask-2)"></path>
                    </g>
                </g>
            </g>
        </g>
    </g>
</svg>

<svg width="80" height="80" viewBox="0 0 80 80" xmlns="http://www.w3.org/2000/svg" xmlns:xlink="http://www.w3.org/1999/xlink"><title>illu</title><defs><path id="a" d="M0 80h80V0H0z"/></defs><g fill="none" fill-rule="evenodd"><path d="M80 40c0 22.092-17.908 40-40 40S0 62.092 0 40 17.908 0 40 0s40 17.908 40 40" fill="#CEF3EF"/><path d="M14.475 55.215h15.27V33.29l-15.27 21.924zm39.738 0v11.844h-9.494v12.723H29.745V67.059H.479V55.705l32.006-45.611h12.234v45.12h9.494z" fill="#222E5C"/><path fill="#FFF" d="M78.382 49.208h.377v30.53h-35.81L29.76 66.483V49.208h.313z"/><path fill="#66D9CE" d="M78.759 40.602v8.606H29.759v-8.606z"/><mask id="b" fill="#fff"><use xlink:href="#a"/></mask><path fill="#46B7A9" mask="url(#b)" d="M63.537 44.747h5v-9.549h-5zM51.79 44.747h5v-9.549h-5zM40.5 44.747h5v-9.549h-5z"/><path fill="#CEF3EF" mask="url(#b)" d="M64.335 62.5h10v-10h-10zM49.259 62.5h10v-10h-10zM34.182 62.5h10v-10h-10z"/><path fill="#FF7D00" mask="url(#b)" d="M64.346 76.32h10v-10h-10z"/><path fill="#CEF3EF" mask="url(#b)" d="M49.269 76.32h10v-10h-10z"/><path fill="#66D9CE" mask="url(#b)" d="M42.95 79.802V66.735H30.01z"/><path d="M78.954 20.944c-2.412 6.395-9.55 9.624-15.945 7.212-6.396-2.41-9.624-9.55-7.213-15.945 2.412-6.395 9.551-9.624 15.945-7.213 6.396 2.412 9.624 9.55 7.213 15.946" fill="#FF7D00" mask="url(#b)"/><path d="M72.556 22.438l-.453 1.202-12.942-4.881.454-1.201a3.4 3.4 0 0 1 1.718-1.85l1.74-.789a3.258 3.258 0 0 0 1.718-1.85l.559-1.48a3.612 3.612 0 0 1 4.667-2.11 3.612 3.612 0 0 1 2.11 4.668l-.568 1.51a3.397 3.397 0 0 0 .068 2.523l.787 1.74c.408.788.445 1.716.142 2.517" fill="#FFF" mask="url(#b)"/><path d="M63.783 20.502l-.232.616a1.98 1.98 0 0 0 1.151 2.546 1.981 1.981 0 0 0 2.546-1.151l.232-.616" fill="#FFF" mask="url(#b)"/></g></svg>
